Dominus_Dark_Funeral/scalable/apps/system-config-boot.svg

<svg xmlns="http://www.w3.org/2000/svg" xmlns:xlink="http://www.w3.org/1999/xlink" width="48" height="48" viewBox="0 0 12.7 12.7"><defs><linearGradient id="b"><stop stop-color="#f5ffff" offset="0"/><stop stop-color="#f3ffff" stop-opacity="0" offset="1"/></linearGradient><linearGradient id="a"><stop stop-color="#4d4d4d" offset="0"/><stop stop-color="#ccc" offset="1"/></linearGradient><radialGradient id="d" cx="6.35" cy="289.59" r="3.85" gradientTransform="matrix(.93136 0 0 .92638 .44 -262.98)" gradientUnits="userSpaceOnUse" xlink:href="#a"/><radialGradient id="f" cx="6.35" cy="289.56" r="1.28" gradientTransform="matrix(.93136 0 0 .93135 .44 -264.42)" gradientUnits="userSpaceOnUse" xlink:href="#a"/><radialGradient id="c" cx="12.01" cy="13.2" r="20" gradientTransform="matrix(-.03728 .66497 -.57468 -.03222 10.57 -4.9)" gradientUnits="userSpaceOnUse" xlink:href="#b"><stop stop-color="#939dac" offset="0"/><stop stop-color="#6f8a91" offset=".26"/><stop stop-color="#93a7ac" offset=".7"/><stop stop-color="#b7c4c8" offset="1"/></radialGradient><radialGradient id="e" cx="6.35" cy="289.56" r="2.55" gradientTransform="translate(.44 -264.42) scale(.93136)" gradientUnits="userSpaceOnUse"><stop stop-color="#e6e6e6" offset="0"/><stop stop-color="#e6e6e6" stop-opacity="0" offset="1"/></radialGradient><radialGradient id="g" cx="6.52" cy="287.7" r="3.85" gradientTransform="matrix(1.6127 .35322 -.22426 1.0239 62 -292.79)" gradientUnits="userSpaceOnUse" xlink:href="#b"/></defs><path d="M6.35.09a9 9 0 0 0-2.08.22 5.82 5.82 0 0 0-1.6.66 3.66 3.66 0 0 0-1.24 1.36c-.14.27-.25.56-.32.88a4.6 4.6 0 0 0 .14 2.52c.15.52.36 1.05.58 1.53.44.97.95 1.8 1.18 2.16.54.85 1.13 1.61 1.65 2.16.34.35.64.6.92.78.28.17.53.25.77.25s.5-.08.77-.25c.28-.17.58-.43.92-.78.52-.55 1.11-1.31 1.65-2.16.23-.37.74-1.19 1.18-2.16.22-.48.43-1 .58-1.53a4.61 4.61 0 0 0 .14-2.52 3.73 3.73 0 0 0-.84-1.63c-.2-.23-.44-.43-.71-.6A4.52 4.52 0 0 0 8.44.3 9 9 0 0 0 6.34.1z" fill="url(#c)"/><path d="M9 6.43a.87.87 0 0 0 1-.7l-.86-.16V5.5v-.02h.01a.87.87 0 0 0 .7-1l-.84.14a2.75 2.75 0 0 0-.04-.1.87.87 0 0 0 .31-1.18l-.74.43a2.78 2.78 0 0 0-.07-.1c.3-.36.25-.9-.11-1.2l-.55.65a2.82 2.82 0 0 0-.1-.06.87.87 0 0 0-.52-1.1l-.29.8-.11-.02a.87.87 0 0 0-.87-.85v.84l-.12.02a.87.87 0 0 0-1.1-.5l.3.8-.11.06a.87.87 0 0 0-1.2-.1l.54.66-.07.09a.87.87 0 0 0-1.17.32l.74.43-.04.1a.87.87 0 0 0-1 .71l.86.15v.11a.87.87 0 0 0-.7 1l.86-.15.03.1a.87.87 0 0 0-.32 1.19l.76-.44.07.07-.01.02c-.31.37-.26.91.1 1.22l.58-.68.08.04v.03c-.17.45.06.95.51 1.11l.3-.84.1.01v.04c0 .48.4.87.87.87v-.9l.1-.02v.03c.17.45.67.68 1.12.52l-.3-.85.08-.04.02.02c.3.37.85.42 1.22.1l-.58-.68.07-.07.02.01c.41.24.95.1 1.19-.32l-.77-.44.03-.1.02.01zm-2.65-.35a.6.6 0 1 1 0-1.18.6.6 0 0 1 0 1.18z" fill="#1c1c24"/><path d="M6.35.09c-1.54 0-2.78.3-3.69.88A3.67 3.67 0 0 0 1 4.22c0 1.91 1.54 4.47 2.01 5.2.54.85 1.13 1.61 1.65 2.16.68.7 1.21 1.03 1.69 1.03s1.01-.33 1.69-1.03c.52-.55 1.11-1.31 1.65-2.16.47-.73 2-3.29 2-5.2 0-1.42-.57-2.55-1.65-3.25A6.75 6.75 0 0 0 6.35.1zm0 .04C6.91.15 7.44.2 7.9.3a5.82 5.82 0 0 1 1.6.66 3.65 3.65 0 0 1 1.24 1.36c.14.27.25.56.32.88a4.61 4.61 0 0 1-.14 2.52c-.15.52-.36 1.05-.58 1.53-.44.97-.95 1.8-1.18 2.16-.54.85-1.13 1.61-1.65 2.16-.34.35-.64.6-.92.78a.96.96 0 0 1-.24.1.96.96 0 0 1-.24-.1 4.76 4.76 0 0 1-.92-.78 14.41 14.41 0 0 1-1.65-2.16 18.4 18.4 0 0 1-1.18-2.16c-.22-.48-.43-1-.58-1.53a4.6 4.6 0 0 1-.14-2.52 3.73 3.73 0 0 1 .84-1.63 3.65 3.65 0 0 1 1.45-1c.27-.1.56-.2.87-.27.46-.11 1-.16 1.55-.18z" opacity=".2"/><path d="M8.95 6.19c.47.08.9-.23.99-.7l-.85-.14v-.08-.02h.01a.85.85 0 0 0 .7-1l-.84.16a2.7 2.7 0 0 0-.04-.1c.4-.24.55-.76.31-1.17l-.73.42a2.8 2.8 0 0 0-.07-.08c.3-.36.25-.9-.1-1.2l-.54.65a2.6 2.6 0 0 0-.1-.06.85.85 0 0 0-.52-1.07l-.28.77-.11-.02a.85.85 0 0 0-.85-.83v.83l-.12.02a.85.85 0 0 0-1.08-.49l.29.78-.1.06a.85.85 0 0 0-1.19-.09l.54.64-.07.09a.85.85 0 0 0-1.15.32l.73.42-.04.1a.85.85 0 0 0-.98.7l.84.14v.1a.85.85 0 0 0-.7 1l.86-.16.03.1a.85.85 0 0 0-.32 1.17L4.22 7l.07.08-.02.01c-.3.36-.25.9.1 1.2l.57-.67.09.05-.01.02c-.16.45.06.93.5 1.1l.3-.84.1.02v.03c0 .47.38.86.85.86v-.89c.03 0 .07 0 .1-.02V8c.17.44.66.67 1.1.5l-.3-.82.08-.05.02.02c.3.36.84.41 1.2.1L8.4 7.1 8.47 7l.02.02c.4.23.93.1 1.16-.32l-.75-.43.04-.1.01.01zm-2.6-.34a.58.58 0 1 1 0-1.16.58.58 0 0 1 0 1.16z" fill="url(#d)"/><path d="M8.95 6.19c.47.08.9-.23.99-.7l-.85-.14v-.08-.02h.01a.85.85 0 0 0 .7-1l-.84.16a2.7 2.7 0 0 0-.04-.1c.4-.24.55-.76.31-1.17l-.73.42a2.8 2.8 0 0 0-.07-.08c.3-.36.25-.9-.1-1.2l-.54.65a2.6 2.6 0 0 0-.1-.06.85.85 0 0 0-.52-1.07l-.28.77-.11-.02c0-.3-.18-.57-.43-.71v2.85a.58.58 0 0 1 0 1.16v2.9c.13.08.27.12.42.12v-.89c.03 0 .07 0 .1-.02V8c.17.44.66.67 1.1.5l-.3-.82.08-.05.02.02c.3.36.84.41 1.2.1L8.4 7.1 8.47 7l.02.02c.4.23.93.1 1.16-.32l-.75-.43.04-.1.01.01z" opacity=".2" fill="#57565c"/><path d="M6.35 2.88a2.38 2.38 0 1 0 0 4.76 2.38 2.38 0 0 0 0-4.76zm0 3.54a1.16 1.16 0 1 1 0-2.32 1.16 1.16 0 0 1 0 2.32z" fill="url(#e)"/><path d="M6.34 3.27c-1.11 0-2.02.9-2.02 2.02v.07h-.64l.88.88a2.02 2.02 0 0 0 3.8-.9h.66l-.8-.79a2.02 2.02 0 0 0-1.88-1.28zm0 .41c.7 0 1.28.44 1.5 1.05l-.61.62h.72a1.6 1.6 0 0 1-3.07.6l.6-.6h-.74V5.3c0-.88.72-1.6 1.6-1.6z" fill="#333"/><path d="M6.35 4.07a1.19 1.19 0 1 0 0 2.38 1.19 1.19 0 0 0 0-2.38zm0 1.77a.58.58 0 1 1 0-1.16.58.58 0 0 1 0 1.16z" fill="url(#f)"/><path d="M7.54 5.26c0-.66-.53-1.19-1.19-1.19v.61a.58.58 0 0 1 0 1.16v.61a1.2 1.2 0 0 0 1.19-1.19z" opacity=".2" fill="#3e3e42"/><path d="M8.95 6.19c.47.08.9-.23.99-.7l-.85-.14v-.08-.02h.01a.85.85 0 0 0 .7-1l-.84.16a2.7 2.7 0 0 0-.04-.1c.4-.24.55-.76.31-1.17l-.73.42a2.82 2.82 0 0 0-.07-.08c.3-.36.25-.9-.1-1.2l-.54.65a2.6 2.6 0 0 0-.1-.06.85.85 0 0 0-.52-1.07l-.28.77-.11-.02a.85.85 0 0 0-.85-.83v.83l-.12.02a.85.85 0 0 0-1.08-.49l.29.78-.1.06a.85.85 0 0 0-1.19-.09l.54.64-.07.09a.85.85 0 0 0-1.15.32l.73.42-.04.1a.85.85 0 0 0-.98.7l.84.14v.1a.85.85 0 0 0-.7 1l.86-.16.03.1a.85.85 0 0 0-.32 1.17L4.22 7l.07.08-.02.01c-.3.36-.25.9.1 1.2l.57-.67.09.05-.01.02c-.16.45.06.93.5 1.1l.3-.84.1.02v.03c0 .47.38.86.85.86v-.89c.03 0 .07 0 .1-.02V8c.17.44.66.67 1.1.5l-.3-.82.08-.05.02.02c.3.36.84.41 1.2.1L8.4 7.1 8.47 7l.02.02c.4.23.93.1 1.16-.32l-.75-.43.04-.1.01.01zm-2.6-.34a.58.58 0 1 1 0-1.16.58.58 0 0 1 0 1.16z" opacity=".6" fill="url(#g)"/></svg>

<?xml version="1.0" encoding="UTF-8" standalone="no"?>
<svg
   xmlns:dc="http://purl.org/dc/elements/1.1/"
   xmlns:cc="http://creativecommons.org/ns#"
   xmlns:rdf="http://www.w3.org/1999/02/22-rdf-syntax-ns#"
   xmlns:svg="http://www.w3.org/2000/svg"
   xmlns="http://www.w3.org/2000/svg"
   xmlns:xlink="http://www.w3.org/1999/xlink"
   xmlns:sodipodi="http://sodipodi.sourceforge.net/DTD/sodipodi-0.dtd"
   xmlns:inkscape="http://www.inkscape.org/namespaces/inkscape"
   width="48"
   height="48"
   viewBox="0 0 12.7 12.7"
   version="1.1"
   id="svg51"
   sodipodi:docname="system-config-boot.svg"
   inkscape:version="0.92.4 (5da689c313, 2019-01-14)">
  <metadata
     id="metadata55">
    <rdf:RDF>
      <cc:Work
         rdf:about="">
        <dc:format>image/svg+xml</dc:format>
        <dc:type
           rdf:resource="http://purl.org/dc/dcmitype/StillImage" />
        <dc:title></dc:title>
      </cc:Work>
    </rdf:RDF>
  </metadata>
  <sodipodi:namedview
     pagecolor="#ffffff"
     bordercolor="#666666"
     borderopacity="1"
     objecttolerance="10"
     gridtolerance="10"
     guidetolerance="10"
     inkscape:pageopacity="0"
     inkscape:pageshadow="2"
     inkscape:window-width="1112"
     inkscape:window-height="480"
     id="namedview53"
     showgrid="false"
     inkscape:zoom="4.9166667"
     inkscape:cx="2.1355932"
     inkscape:cy="24"
     inkscape:window-x="0"
     inkscape:window-y="25"
     inkscape:window-maximized="0"
     inkscape:current-layer="svg51" />
  <defs
     id="defs29">
    <linearGradient
       id="b">
      <stop
         stop-color="#f5ffff"
         offset="0"
         id="stop2" />
      <stop
         stop-color="#f3ffff"
         stop-opacity="0"
         offset="1"
         id="stop4" />
    </linearGradient>
    <linearGradient
       id="a">
      <stop
         stop-color="#4d4d4d"
         offset="0"
         id="stop7" />
      <stop
         stop-color="#ccc"
         offset="1"
         id="stop9" />
    </linearGradient>
    <radialGradient
       id="d"
       cx="6.35"
       cy="289.59"
       r="3.85"
       gradientTransform="matrix(0.93136,0,0,0.92638,0.44,-262.98)"
       gradientUnits="userSpaceOnUse"
       xlink:href="#a" />
    <radialGradient
       id="f"
       cx="6.35"
       cy="289.56"
       r="1.28"
       gradientTransform="matrix(0.93136,0,0,0.93135,0.44,-264.42)"
       gradientUnits="userSpaceOnUse"
       xlink:href="#a" />
    <radialGradient
       id="c"
       cx="12.01"
       cy="13.2"
       r="20"
       gradientTransform="matrix(-0.03728,0.66497,-0.57468,-0.03222,10.57,-4.9)"
       gradientUnits="userSpaceOnUse"
       xlink:href="#b">
      <stop
         stop-color="#939dac"
         offset="0"
         id="stop14" />
      <stop
         stop-color="#6f8a91"
         offset=".26"
         id="stop16" />
      <stop
         stop-color="#93a7ac"
         offset=".7"
         id="stop18" />
      <stop
         stop-color="#b7c4c8"
         offset="1"
         id="stop20" />
    </radialGradient>
    <radialGradient
       id="e"
       cx="6.35"
       cy="289.56"
       r="2.55"
       gradientTransform="matrix(0.93136,0,0,0.93136,0.44,-264.42)"
       gradientUnits="userSpaceOnUse">
      <stop
         stop-color="#e6e6e6"
         offset="0"
         id="stop23" />
      <stop
         stop-color="#e6e6e6"
         stop-opacity="0"
         offset="1"
         id="stop25" />
    </radialGradient>
    <radialGradient
       id="g"
       cx="6.52"
       cy="287.7"
       r="3.85"
       gradientTransform="matrix(1.6127,0.35322,-0.22426,1.0239,62,-292.79)"
       gradientUnits="userSpaceOnUse"
       xlink:href="#b" />
  </defs>
  <path
     d="M 6.35,0.09 A 9,9 0 0 0 4.27,0.31 5.82,5.82 0 0 0 2.67,0.97 3.66,3.66 0 0 0 1.43,2.33 C 1.29,2.6 1.18,2.89 1.11,3.21 a 4.6,4.6 0 0 0 0.14,2.52 c 0.15,0.52 0.36,1.05 0.58,1.53 0.44,0.97 0.95,1.8 1.18,2.16 0.54,0.85 1.13,1.61 1.65,2.16 0.34,0.35 0.64,0.6 0.92,0.78 0.28,0.17 0.53,0.25 0.77,0.25 0.24,0 0.5,-0.08 0.77,-0.25 C 7.4,12.19 7.7,11.93 8.04,11.58 8.56,11.03 9.15,10.27 9.69,9.42 9.92,9.05 10.43,8.23 10.87,7.26 11.09,6.78 11.3,6.26 11.45,5.73 A 4.61,4.61 0 0 0 11.59,3.21 3.73,3.73 0 0 0 10.75,1.58 C 10.55,1.35 10.31,1.15 10.04,0.98 A 4.52,4.52 0 0 0 8.44,0.3 9,9 0 0 0 6.34,0.1 Z"
     id="path31"
     style="fill:url(#c)"
     inkscape:connector-curvature="0" />
  <path
     d="m 9,6.43 a 0.87,0.87 0 0 0 1,-0.7 L 9.14,5.57 V 5.5 5.48 h 0.01 a 0.87,0.87 0 0 0 0.7,-1 L 9.01,4.62 A 2.75,2.75 0 0 0 8.97,4.52 0.87,0.87 0 0 0 9.28,3.34 L 8.54,3.77 A 2.78,2.78 0 0 0 8.47,3.67 C 8.77,3.31 8.72,2.77 8.36,2.47 L 7.81,3.12 A 2.82,2.82 0 0 0 7.71,3.06 0.87,0.87 0 0 0 7.19,1.96 L 6.9,2.76 6.79,2.74 A 0.87,0.87 0 0 0 5.92,1.89 V 2.73 L 5.8,2.75 A 0.87,0.87 0 0 0 4.7,2.25 L 5,3.05 4.89,3.11 A 0.87,0.87 0 0 0 3.69,3.01 L 4.23,3.67 4.16,3.76 A 0.87,0.87 0 0 0 2.99,4.08 l 0.74,0.43 -0.04,0.1 a 0.87,0.87 0 0 0 -1,0.71 l 0.86,0.15 v 0.11 a 0.87,0.87 0 0 0 -0.7,1 L 3.71,6.43 3.74,6.53 A 0.87,0.87 0 0 0 3.42,7.72 L 4.18,7.28 4.25,7.35 4.24,7.37 C 3.93,7.74 3.98,8.28 4.34,8.59 L 4.92,7.91 5,7.95 V 7.98 C 4.83,8.43 5.06,8.93 5.51,9.09 l 0.3,-0.84 0.1,0.01 V 8.3 c 0,0.48 0.4,0.87 0.87,0.87 V 8.27 L 6.88,8.25 V 8.28 C 7.05,8.73 7.55,8.96 8,8.8 L 7.7,7.95 7.78,7.91 7.8,7.93 C 8.1,8.3 8.65,8.35 9.02,8.03 L 8.44,7.35 8.51,7.28 8.53,7.29 C 8.94,7.53 9.48,7.39 9.72,6.97 L 8.95,6.53 8.98,6.43 9,6.44 Z M 6.35,6.08 a 0.6,0.6 0 1 1 0,-1.18 0.6,0.6 0 0 1 0,1.18 z"
     id="path33"
     inkscape:connector-curvature="0"
     style="fill:#1c1c24" />
  <path
     d="m 6.35,0.09 c -1.54,0 -2.78,0.3 -3.69,0.88 A 3.67,3.67 0 0 0 1,4.22 c 0,1.91 1.54,4.47 2.01,5.2 0.54,0.85 1.13,1.61 1.65,2.16 0.68,0.7 1.21,1.03 1.69,1.03 0.48,0 1.01,-0.33 1.69,-1.03 0.52,-0.55 1.11,-1.31 1.65,-2.16 0.47,-0.73 2,-3.29 2,-5.2 0,-1.42 -0.57,-2.55 -1.65,-3.25 A 6.75,6.75 0 0 0 6.35,0.1 Z m 0,0.04 C 6.91,0.15 7.44,0.2 7.9,0.3 a 5.82,5.82 0 0 1 1.6,0.66 3.65,3.65 0 0 1 1.24,1.36 c 0.14,0.27 0.25,0.56 0.32,0.88 A 4.61,4.61 0 0 1 10.92,5.72 C 10.77,6.24 10.56,6.77 10.34,7.25 9.9,8.22 9.39,9.05 9.16,9.41 8.62,10.26 8.03,11.02 7.51,11.57 7.17,11.92 6.87,12.17 6.59,12.35 A 0.96,0.96 0 0 1 6.35,12.45 0.96,0.96 0 0 1 6.11,12.35 4.76,4.76 0 0 1 5.19,11.57 14.41,14.41 0 0 1 3.54,9.41 18.4,18.4 0 0 1 2.36,7.25 C 2.14,6.77 1.93,6.25 1.78,5.72 A 4.6,4.6 0 0 1 1.64,3.2 3.73,3.73 0 0 1 2.48,1.57 3.65,3.65 0 0 1 3.93,0.57 C 4.2,0.47 4.49,0.37 4.8,0.3 5.26,0.19 5.8,0.14 6.35,0.12 Z"
     id="path35"
     inkscape:connector-curvature="0"
     style="opacity:0.2" />
  <path
     d="M 8.95,6.19 C 9.42,6.27 9.85,5.96 9.94,5.49 L 9.09,5.35 V 5.27 5.25 H 9.1 a 0.85,0.85 0 0 0 0.7,-1 L 8.96,4.41 A 2.7,2.7 0 0 0 8.92,4.31 C 9.32,4.07 9.47,3.55 9.23,3.14 L 8.5,3.56 A 2.8,2.8 0 0 0 8.43,3.48 C 8.73,3.12 8.68,2.58 8.33,2.28 L 7.79,2.93 A 2.6,2.6 0 0 0 7.69,2.87 0.85,0.85 0 0 0 7.17,1.8 L 6.89,2.57 6.78,2.55 A 0.85,0.85 0 0 0 5.93,1.72 V 2.55 L 5.81,2.57 A 0.85,0.85 0 0 0 4.73,2.08 L 5.02,2.86 4.92,2.92 A 0.85,0.85 0 0 0 3.73,2.83 L 4.27,3.47 4.2,3.56 A 0.85,0.85 0 0 0 3.05,3.88 L 3.78,4.3 3.74,4.4 A 0.85,0.85 0 0 0 2.76,5.1 L 3.6,5.24 v 0.1 a 0.85,0.85 0 0 0 -0.7,1 L 3.76,6.18 3.79,6.28 A 0.85,0.85 0 0 0 3.47,7.45 L 4.22,7 4.29,7.08 4.27,7.09 c -0.3,0.36 -0.25,0.9 0.1,1.2 L 4.94,7.62 5.03,7.67 5.02,7.69 c -0.16,0.45 0.06,0.93 0.5,1.1 l 0.3,-0.84 0.1,0.02 V 8 c 0,0.47 0.38,0.86 0.85,0.86 V 7.97 c 0.03,0 0.07,0 0.1,-0.02 V 8 c 0.17,0.44 0.66,0.67 1.1,0.5 L 7.67,7.68 7.75,7.63 7.77,7.65 c 0.3,0.36 0.84,0.41 1.2,0.1 L 8.4,7.1 8.47,7 8.49,7.02 C 8.89,7.25 9.42,7.12 9.65,6.7 L 8.9,6.27 8.94,6.17 8.95,6.18 Z M 6.35,5.85 a 0.58,0.58 0 1 1 0,-1.16 0.58,0.58 0 0 1 0,1.16 z"
     id="path37"
     style="fill:url(#d)"
     inkscape:connector-curvature="0" />
  <path
     d="M 8.95,6.19 C 9.42,6.27 9.85,5.96 9.94,5.49 L 9.09,5.35 V 5.27 5.25 H 9.1 a 0.85,0.85 0 0 0 0.7,-1 L 8.96,4.41 A 2.7,2.7 0 0 0 8.92,4.31 C 9.32,4.07 9.47,3.55 9.23,3.14 L 8.5,3.56 A 2.8,2.8 0 0 0 8.43,3.48 C 8.73,3.12 8.68,2.58 8.33,2.28 L 7.79,2.93 A 2.6,2.6 0 0 0 7.69,2.87 0.85,0.85 0 0 0 7.17,1.8 L 6.89,2.57 6.78,2.55 C 6.78,2.25 6.6,1.98 6.35,1.84 v 2.85 a 0.58,0.58 0 0 1 0,1.16 v 2.9 C 6.48,8.83 6.62,8.87 6.77,8.87 V 7.98 c 0.03,0 0.07,0 0.1,-0.02 V 8 c 0.17,0.44 0.66,0.67 1.1,0.5 L 7.67,7.68 7.75,7.63 7.77,7.65 c 0.3,0.36 0.84,0.41 1.2,0.1 L 8.4,7.1 8.47,7 8.49,7.02 C 8.89,7.25 9.42,7.12 9.65,6.7 L 8.9,6.27 8.94,6.17 8.95,6.18 Z"
     id="path39"
     inkscape:connector-curvature="0"
     style="opacity:0.2;fill:#57565c" />
  <path
     d="m 6.35,2.88 a 2.38,2.38 0 1 0 0,4.76 2.38,2.38 0 0 0 0,-4.76 z m 0,3.54 a 1.16,1.16 0 1 1 0,-2.32 1.16,1.16 0 0 1 0,2.32 z"
     id="path41"
     style="fill:url(#e)"
     inkscape:connector-curvature="0" />
  <path
     d="m 6.34,3.27 c -1.11,0 -2.02,0.9 -2.02,2.02 V 5.36 H 3.68 l 0.88,0.88 a 2.02,2.02 0 0 0 3.8,-0.9 H 9.02 L 8.22,4.55 A 2.02,2.02 0 0 0 6.34,3.27 Z m 0,0.41 c 0.7,0 1.28,0.44 1.5,1.05 L 7.23,5.35 h 0.72 a 1.6,1.6 0 0 1 -3.07,0.6 l 0.6,-0.6 H 4.74 V 5.3 c 0,-0.88 0.72,-1.6 1.6,-1.6 z"
     id="path43"
     inkscape:connector-curvature="0"
     style="fill:#333333" />
  <path
     d="m 6.35,4.07 a 1.19,1.19 0 1 0 0,2.38 1.19,1.19 0 0 0 0,-2.38 z m 0,1.77 a 0.58,0.58 0 1 1 0,-1.16 0.58,0.58 0 0 1 0,1.16 z"
     id="path45"
     style="fill:url(#f)"
     inkscape:connector-curvature="0" />
  <path
     d="M 7.54,5.26 C 7.54,4.6 7.01,4.07 6.35,4.07 v 0.61 a 0.58,0.58 0 0 1 0,1.16 V 6.45 A 1.2,1.2 0 0 0 7.54,5.26 Z"
     id="path47"
     inkscape:connector-curvature="0"
     style="opacity:0.2;fill:#3e3e42" />
  <path
     d="M 8.95,6.19 C 9.42,6.27 9.85,5.96 9.94,5.49 L 9.09,5.35 V 5.27 5.25 H 9.1 a 0.85,0.85 0 0 0 0.7,-1 L 8.96,4.41 A 2.7,2.7 0 0 0 8.92,4.31 C 9.32,4.07 9.47,3.55 9.23,3.14 L 8.5,3.56 A 2.82,2.82 0 0 0 8.43,3.48 C 8.73,3.12 8.68,2.58 8.33,2.28 L 7.79,2.93 A 2.6,2.6 0 0 0 7.69,2.87 0.85,0.85 0 0 0 7.17,1.8 L 6.89,2.57 6.78,2.55 A 0.85,0.85 0 0 0 5.93,1.72 V 2.55 L 5.81,2.57 A 0.85,0.85 0 0 0 4.73,2.08 L 5.02,2.86 4.92,2.92 A 0.85,0.85 0 0 0 3.73,2.83 L 4.27,3.47 4.2,3.56 A 0.85,0.85 0 0 0 3.05,3.88 L 3.78,4.3 3.74,4.4 A 0.85,0.85 0 0 0 2.76,5.1 L 3.6,5.24 v 0.1 a 0.85,0.85 0 0 0 -0.7,1 L 3.76,6.18 3.79,6.28 A 0.85,0.85 0 0 0 3.47,7.45 L 4.22,7 4.29,7.08 4.27,7.09 c -0.3,0.36 -0.25,0.9 0.1,1.2 L 4.94,7.62 5.03,7.67 5.02,7.69 c -0.16,0.45 0.06,0.93 0.5,1.1 l 0.3,-0.84 0.1,0.02 V 8 c 0,0.47 0.38,0.86 0.85,0.86 V 7.97 c 0.03,0 0.07,0 0.1,-0.02 V 8 c 0.17,0.44 0.66,0.67 1.1,0.5 L 7.67,7.68 7.75,7.63 7.77,7.65 c 0.3,0.36 0.84,0.41 1.2,0.1 L 8.4,7.1 8.47,7 8.49,7.02 C 8.89,7.25 9.42,7.12 9.65,6.7 L 8.9,6.27 8.94,6.17 8.95,6.18 Z M 6.35,5.85 a 0.58,0.58 0 1 1 0,-1.16 0.58,0.58 0 0 1 0,1.16 z"
     id="path49"
     style="opacity:0.6;fill:url(#g)"
     inkscape:connector-curvature="0" />
</svg>
